!!!COM: Paul Hindemith
!!!OTL: [T673_Hin-w97p3s1-4]
**kern	**dynam	**kern	**dynam	**kern	**dynam	**kern	**dynam
*grp:A	*grp:A	*grp:B	*grp:B	*grp:B	*grp:A	*grp:A	*
*part4	*part4	*part3	*part3	*part2	*part2	*part1	*part1
*staff4	*	*staff3	*	*staff2	*	*staff1	*
*I"Horn 4	*	*I"Horn 3	*	*I"Horn 2	*	*I"Horn 1	*
*I'Hn. 4	*	*I'Hn. 3	*	*I'Hn. 2	*	*I'Hn. 1	*
*clefG2	*	*clefG2	*	*clefG2	*	*clefG2	*
*ITrd4c7	*	*ITrd4c7	*	*ITrd4c7	*	*ITrd4c7	*
*k[b-]	*	*k[b-]	*	*k[b-]	*	*k[b-]	*
*	*	*	*	*	*	*	*
*M4/4	*	*M4/4	*	*M4/4	*	*M4/4	*
=1	=1	=1	=1	=1	=1	=1	=1
!	!	!	!	!	!	!LO:TX:i::t=Fugato	!
!	!	!	!	!	!	!LO:TX:t=Sehr Langsam ([quarter]= 45)	!
1ryy	.	1r	.	1r	.	8ryy	.
!	!	!	!	!	!	!	!LO:DY:t=%s  espr.
.	.	.	.	.	.	4.ryy	4ryy
.	.	.	.	.	.	4.ryy	.
.	.	.	.	.	.	8ryy	.
=2	=2	=2	=2	=2	=2	=2	=2
1ryy	.	1r	.	1r	.	8ryy	.
.	.	.	.	.	.	8ryy	.
.	.	.	.	.	.	4ryy	.
.	.	.	.	.	.	4.ryy	.
.	.	.	.	.	.	8ryy	.
=3	=3	=3	=3	=3	=3	=3	=3
1ryy	.	1r	.	2r	.	4ryy	.
.	.	.	.	.	.	4ryy	.
.	.	.	.	8r	.	4.ryy	.
!	!	!	!	!	!LO:DY:t=%s  espr.	!	!
.	.	.	.	4.E-X~	4ryy	.	.
.	.	.	.	.	.	8ryy	.
=4	=4	=4	=4	=4	=4	=4	=4
1ryy	.	1r	.	4.B-~	.	2ryy	.
.	.	.	.	(8A-X	.	.	.
.	.	.	.	8B-L	.	8ryy	.
.	.	.	.	8BXJ)	.	4ryy	.
.	.	.	.	[4G^	.	.	.
.	.	.	.	.	.	8ryy	.
=5	=5	=5	=5	=5	=5	=5	=5
1ryy	.	1r	.	4.G]	.	4ryy	.
.	.	.	.	.	.	4ryy	.
.	.	.	.	8G-X	.	.	.
.	.	.	.	4D-X	.	4.ryy	.
.	.	.	.	4F-X	.	.	.
.	.	.	.	.	.	8ryy	.
=6	=6	=6	=6	=6	=6	=6	=6
2ryy	.	1r	.	2E-X	.	4ryy	.
.	.	.	.	.	.	8ryy	.
.	.	.	.	.	.	8ryy	.
8ryy	.	.	.	4.A-X	4ryy	4ryy	4ryy
!	!LO:DY:t=%s  espr.	!	!	!	!	!	!
4.ryy	4ryy	.	.	.	.	.	.
.	.	.	.	.	.	8ryy	.
.	.	.	.	8G	.	8ryy	.
!!linebreak:original
=7	=7	=7	=7	=7	=7	=7	=7
4.ryy	4ryy	1r	.	4A-X	.	4ryy	.
.	.	.	.	4B-	.	8ryy	.
8ryy	.	.	.	.	.	8ryy	.
8ryy	.	.	.	4.c	.	4ryy	.
8ryy	.	.	.	.	.	.	.
4ryy	.	.	.	.	.	8ryy	.
.	.	.	.	8d-X	.	8ryy	.
=8	=8	=8	=8	=8	=8	=8	=8
4ryy	.	2r	.	4c	.	8ryy	.
.	.	.	.	.	.	8ryy	.
4ryy	.	.	.	[4e-X	.	4ryy	.
4.ryy	4ryy	8r	.	4.e-]	.	8ryy	.
.	.	4.BX~	mf	.	.	8ryy	.
.	.	.	.	.	.	4ryy	.
8ryy	.	.	.	8dn	.	.	.
!!LO:REH:t=A
=9	=9	=9	=9	=9	=9	=9	=9
1ryy	.	4.f#X~	.	4D	4ryy	8ryy	.
.	.	.	.	.	.	4.ryy	4ryy
.	.	.	.	4r	.	.	.
.	.	(8e	.	.	.	.	.
.	.	8f#L	.	2r	.	4.ryy	.
.	.	8gJ)	.	.	.	.	.
.	.	[4d^	.	.	.	.	.
.	.	.	.	.	.	8ryy	.
=10	=10	=10	=10	=10	=10	=10	=10
2ryy	.	4d]	.	1r	.	8ryy	.
.	.	.	.	.	.	8ryy	.
.	.	4d-X	.	.	.	2ryy	.
8ryy	.	2c	.	.	.	.	.
4.ryy	4ryy	.	.	.	.	.	.
.	.	.	.	.	.	4ryy	.
=11	=11	=11	=11	=11	=11	=11	=11
4.ryy	.	1r	.	8r	.	4ryy	4ryy
.	.	.	.	4.A-X~	4ryy	.	.
.	.	.	.	.	4ryy	8ryy	.
8ryy	4ryy	.	.	.	.	8ryy	.
8ryy	.	.	.	4.e-X~	.	4ryy	.
8ryy	.	.	.	.	.	.	.
4ryy	.	.	.	.	.	8ryy	.
.	.	.	.	(8d-X	.	8ryy	.
=12	=12	=12	=12	=12	=12	=12	=12
4.ryy	.	2r	.	8e-XL	.	4ryy	.
.	.	.	.	8eJ)	.	.	.
.	.	.	.	2.BX^	4ryy	4ryy	.
8ryy	.	.	.	.	.	.	.
8ryy	.	4BX	f	.	.	8ryy	.
4.ryy	4ryy	.	.	.	.	4.ryy	4ryy
.	.	8c#XL	.	.	.	.	.
.	.	8dJ	.	.	.	.	.
!!linebreak:original
=13	=13	=13	=13	=13	=13	=13	=13
4.ryy	.	2e	.	(4g	.	4.ryy	.
.	.	.	.	8a)	.	.	.
8ryy	.	.	.	8r	.	8ryy	.
8ryy	.	4d	.	(4g	.	8ryy	.
8ryy	.	.	.	.	.	8ryy	.
4ryy	.	4cn	.	8f)	.	4ryy	.
.	.	.	.	8r	.	.	.
=14	=14	=14	=14	=14	=14	=14	=14
8ryy	.	2B-	.	(4e-X	.	4.ryy	.
8ryy	.	.	.	.	.	.	.
4ryy	.	.	.	8d-X)	.	.	.
.	.	.	.	8r	.	8ryy	.
4ryy	.	4A-X	.	8e-L	.	4.ryy	.
.	.	.	.	8f-X	.	.	.
4ryy	.	4G-X	.	8e-	.	.	.
.	.	.	.	8d-XJ	.	8ryy	.
=15	=15	=15	=15	=15	=15	=15	=15
1ryy	.	8r	.	8d-XL	.	4ryy	.
.	.	4.F~	p	8cJ	.	.	.
.	.	.	.	4B-	.	4ryy	.
.	.	4.c~	.	4A-X	.	8ryy	.
.	.	.	.	.	.	4.ryy	.
.	.	.	.	4G-X	.	.	.
.	.	(8B-	.	.	.	.	.
!!LO:REH:t=B
=16	=16	=16	=16	=16	=16	=16	=16
1ryy	.	8cL	.	2F	.	4.ryy	.
.	.	8c#XJ)	.	.	.	.	.
.	.	[4A^	.	.	.	.	.
.	4ryy	.	>	.	4ryy	8ryy	4ryy
.	.	4.A]	.	[2F#X	.	8ryy	.
.	.	.	.	.	.	8ryy	.
.	.	.	.	.	.	4ryy	.
.	.	8G#X	.	.	.	.	.
=17	=17	=17	=17	=17	=17	=17	=17
1ryy	.	4A	.	4F#]	.	8ryy	.
.	.	.	.	.	.	8ryy	.
.	.	4BX	.	8EL	.	4ryy	.
.	.	.	.	8F#XJ	.	.	.
.	.	4c	.	4G	.	8ryy	.
.	.	.	.	.	.	8ryy	.
.	.	[4d	<	8AL	.	8ryy	.
.	.	.	[[	8B-XJ	.	8ryy	.
!!pagebreak:original
=18	=18	=18	=18	=18	=18	=18	=18
4ryy	.	4d]	.	(8c-X	.	4.ryy	.
.	.	.	.	[4.e-X)	.	.	.
4ryy	.	8cL	.	.	.	.	.
.	.	[8c-XJ	.	.	.	8ryy	.
4.ryy	.	8c-L]	>	4e-]	.	4ryy	.
.	.	8B-	.	.	.	.	.
.	.	8A-X	.	4r	.	8ryy	.
8ryy	.	8B-J	]]	.	.	8ryy	.
=19	=19	=19	=19	=19	=19	=19	=19
2ryy	.	8r	.	[1G	.	4.ryy	.
.	.	4.cn~	mf	.	.	.	.
.	.	.	.	.	.	8ryy	.
4ryy	.	4.g~	.	.	.	4.ryy	.
4ryy	.	.	.	.	.	.	.
.	.	8f	.	.	.	8ryy	.
=20	=20	=20	=20	=20	=20	=20	=20
*M3/4	*	*M3/4	*	*M3/4	*	*M3/4	*
4ryy	.	2g	.	2G]	.	2ryy	.
4ryy	.	.	.	.	.	.	.
!	!LO:DY:t=%s  espr.	!	!	!	!LO:DY:t=%s  espr.	!	!LO:DY:t=%s  espr.
4ryy	4ryy	4a-X	.	4F	4ryy	8ryy	4ryy
.	.	.	.	.	.	8ryy	.
=21	=21	=21	=21	=21	=21	=21	=21
*M5/4	*	*M5/4	*	*M5/4	*	*M5/4	*
8ryy	.	4e-X~	.	2G	.	4.ryy	.
8ryy	.	.	.	.	.	.	.
4ryy	.	4f-X~	.	.	.	.	.
.	.	.	.	.	.	8ryy	.
4ryy	.	(2c-X	>	(2A-X	.	4ryy	.
2ryy	.	.	.	.	.	4.ryy	.
.	.	4d-X)	]]	4B-)	.	.	.
.	.	.	.	.	.	8ryy	.
=22	=22	=22	=22	=22	=22	=22	=22
*M3/4	*	*M3/4	*	*M3/4	*	*M3/4	*
4ryy	.	2.e-X	p	2B-	.	4ryy	.
2ryy	.	.	.	.	.	2ryy	.
.	4ryy	.	>	8A-X~L	4ryy	.	4ryy
.	.	.	.	8B-~J	.	.	.
=23	=23	=23	=23	=23	=23	=23	=23
2.ryy	4ryy	2.f	]]	2.c	4ryy	2.ryy	4ryy
==	==	==	==	==	==	==	==
*-	*-	*-	*-	*-	*-	*-	*-
!!!system-decoration: [(s1,s2,s3,s4)]
!!!RDF**dynam: > = dim.
!!!EED: Daniel Wright
!!!EEV: 2021/12/17
